X:5303
T:Pup in the Parachute
O:england
M:4/4
N:Parachutes were apparently invented not long after the hot air balloon...
N:See YDW's Jackson book, 'Lunardies flight in the Air balloon'
L:1/8
K:G
G>FGD G>FGD |EAA>G FA AB/2A/2 |\
G>FGD G>FGD | EGF>A BG G2:|
|:d>edB cege | d>cBG FAAB | \
G>FGD EGDG | ced>c BGG2:|


